X:1
T:Only Remembered
M:4/4
L:1/4
K:A
 E2 E3/2 D/2| C2 E E| A2 A3/2 A/2| F E3| E2 A3/2 B/2| c2 A B| c2 B A|\
 B4| c2 A c| B A2 E| F2 A3/2 A/2| F E3| E2 A3/2 B/2| c A2 B| c2 G B|\
 A4| E2 E3/2 D/2| C E3| A2 A3/2 A/2| F E3| E2 A3/2 B/2| c A2 B| c2 B A|\
 B4| c2 c3/2 c/2| B A3| F2 A3/2 A/2| F E3| E2 A3/2 B/2| c A2 B| c2 G B|\
 A4|
